resources/svg/attachment-o.svg

<svg xmlns="http://www.w3.org/2000/svg" viewBox="0 0 15 15" fill="none"><path d="M0.5 0V4.5C0.5 5.60457 1.39543 6.5 2.5 6.5C3.60457 6.5 4.5 5.60457 4.5 4.5V1.5C4.5 0.947715 4.05228 0.5 3.5 0.5C2.94772 0.5 2.5 0.947715 2.5 1.5V5M6 0.5H12.5C13.0523 0.5 13.5 0.947715 13.5 1.5V13.5C13.5 14.0523 13.0523 14.5 12.5 14.5H2.5C1.94772 14.5 1.5 14.0523 1.5 13.5V8M11 4.5H7M11 7.5H7M11 10.5H4" stroke="black"/></svg>

<svg xmlns="http://www.w3.org/2000/svg" viewBox="0 0 15 15" fill="none"><path d="M.5 0v4.5a2 2 0 104 0v-3a1 1 0 00-2 0V5M6 .5h6.5a1 1 0 011 1v12a1 1 0 01-1 1h-10a1 1 0 01-1-1V8M11 4.5H7m4 3H7m4 3H4" stroke="currentColor"/></svg>
